public/img/myTop.svg

<svg width="41" height="38" viewBox="0 0 41 38" fill="none" xmlns="http://www.w3.org/2000/svg">
<path d="M41 1.74391C41 1.0926 40.4622 0.564575 39.7988 0.564575C39.1355 0.564575 38.5977 1.0926 38.5977 1.74391C38.5977 3.02254 37.4609 4.10266 36.1152 4.10266H30.6968C27.6077 2.55891 24.0892 1.74399 20.5 1.74399C16.9108 1.74399 13.3923 2.55891 10.3032 4.10266H4.89942C3.54586 4.10274 2.40234 3.02254 2.40234 1.74391C2.40234 1.0926 1.86454 0.564575 1.20117 0.564575C0.537805 0.564575 0 1.0926 0 1.74391V5.28199C0 7.46997 0.88198 9.53176 2.48386 11.0935C0.856035 13.7063 0 16.569 0 19.4341C0 29.1884 9.19625 37.1241 20.5 37.1241C31.8037 37.1241 41 29.1884 41 19.4341C41 16.5734 40.1464 13.7145 38.523 11.1048C40.0529 9.61086 41 7.55205 41 5.28207V1.74391ZM20.5001 4.10274C22.4136 4.10274 24.3025 4.36093 26.0992 4.86026C24.7576 5.38813 23.5262 6.18253 22.474 7.21712C21.6723 8.00547 21.0131 8.89594 20.5074 9.85812C20.0017 8.89594 19.3425 8.00547 18.5407 7.21712C17.487 6.18096 16.2535 5.38577 14.9094 4.8579C16.7036 4.36015 18.5895 4.10274 20.5001 4.10274ZM20.5 23.682C20.9492 24.4139 21.5108 25.072 22.1611 25.6335L20.5 28.7097L18.8389 25.6335C19.4892 25.072 20.0508 24.4139 20.5 23.682ZM13.293 25.3308C9.98134 25.3308 7.28711 22.6855 7.28711 19.4341C7.28711 16.1827 9.98134 13.5374 13.293 13.5374C16.6046 13.5374 19.2988 16.1827 19.2988 19.4341C19.2988 22.6855 16.6046 25.3308 13.293 25.3308ZM21.7012 19.4341C21.7012 19.3403 21.704 19.2471 21.7084 19.1543C21.7167 19.098 21.7225 19.0407 21.7223 18.9821V18.9596C21.9695 15.9294 24.5582 13.5374 27.707 13.5374C31.0187 13.5374 33.7129 16.1827 33.7129 19.4341C33.7129 22.6855 31.0187 25.3308 27.707 25.3308C24.3954 25.3308 21.7012 22.6855 21.7012 19.4341ZM2.42621 5.80593C3.17278 6.23332 4.0212 6.4614 4.89942 6.4614H10.5791H10.585H10.8906C13.139 6.4614 15.2521 7.32169 16.8407 8.88376C18.1513 10.1725 18.9743 11.8112 19.2204 13.5847C17.8662 12.2618 16.0568 11.3883 14.0459 11.2122C13.956 11.1911 13.8626 11.1787 13.7661 11.1787H8.50286C7.1907 11.1787 5.97455 10.7755 4.97846 10.0916C4.91423 10.0187 4.84104 9.95168 4.7568 9.89421C4.70067 9.85592 4.64205 9.82424 4.58223 9.79648C3.3801 8.81952 2.57227 7.40322 2.42621 5.80593ZM38.5977 19.4341C38.5977 27.8878 30.4791 34.7654 20.5 34.7654C10.5209 34.7654 2.40234 27.8878 2.40234 19.4341C2.40234 17.0745 3.09582 14.7032 4.41687 12.5137C5.36259 13.0225 6.39808 13.3501 7.47769 13.4773C5.88062 14.9808 4.88477 17.0953 4.88477 19.4341C4.88477 23.9861 8.65668 27.6894 13.293 27.6894C14.5513 27.6894 15.7457 27.4161 16.8185 26.9277L19.4387 31.7799C19.6471 32.1656 20.0553 32.4068 20.5 32.4068C20.9447 32.4068 21.3529 32.1656 21.5613 31.7799L24.1815 26.9277C25.2543 27.4161 26.4488 27.6894 27.707 27.6894C32.3433 27.6894 36.1152 23.9861 36.1152 19.4341C36.1152 17.096 35.1199 14.982 33.5237 13.4785C34.6228 13.3509 35.6581 13.0185 36.5878 12.5214C37.9058 14.7088 38.5977 17.0775 38.5977 19.4341ZM36.3987 9.81543C36.3475 9.84051 36.2972 9.86811 36.2489 9.90105C36.1712 9.95404 36.1028 10.0151 36.042 10.0813C35.0456 10.7713 33.8271 11.1787 32.5117 11.1787H27.2484C27.1547 11.1787 27.0639 11.1902 26.9764 11.2102C24.9648 11.381 23.1538 12.2499 21.7964 13.5685C22.0453 11.8012 22.8673 10.1685 24.1739 8.88368C25.7625 7.32161 27.8756 6.46133 30.1239 6.46133H30.3957C30.3984 6.46133 30.401 6.46156 30.4037 6.46156C30.406 6.46156 30.4083 6.46133 30.4106 6.46133H36.1152C36.9885 6.46133 37.8315 6.23544 38.5732 5.81222C38.425 7.41753 37.6096 8.83918 36.3987 9.81543Z" fill="#7653FC"/>
<path d="M13.5 16.6835L14.5103 19.2744H17.7798L15.1347 20.8758L16.145 23.4667L13.5 21.8654L10.855 23.4667L11.8653 20.8758L9.22025 19.2744H12.4897L13.5 16.6835Z" fill="#7653FC"/>
<path d="M27.5 16.6835L28.5103 19.2744H31.7798L29.1347 20.8758L30.145 23.4667L27.5 21.8654L24.855 23.4667L25.8653 20.8758L23.2202 19.2744H26.4897L27.5 16.6835Z" fill="#7653FC"/>
</svg>

<svg width="41" height="38" fill="none" xmlns="http://www.w3.org/2000/svg"><path d="M41 1.744a1.19 1.19 0 00-1.201-1.18 1.19 1.19 0 00-1.201 1.18c0 1.279-1.137 2.359-2.483 2.359h-5.418c-3.09-1.544-6.608-2.359-10.197-2.359-3.59 0-7.108.815-10.197 2.359H4.9c-1.353 0-2.497-1.08-2.497-2.36a1.19 1.19 0 00-1.2-1.178A1.19 1.19 0 000 1.744v3.538c0 2.188.882 4.25 2.484 5.812C.856 13.706 0 16.569 0 19.434c0 9.754 9.196 17.69 20.5 17.69S41 29.188 41 19.434c0-2.86-.854-5.72-2.477-8.33C40.053 9.612 41 7.553 41 5.283V1.744zM20.5 4.103c1.914 0 3.802.258 5.6.757a10.807 10.807 0 00-5.593 4.998 10.804 10.804 0 00-5.598-5 20.943 20.943 0 015.591-.755zm0 19.579c.45.732 1.01 1.39 1.661 1.952L20.5 28.71l-1.661-3.076a8.355 8.355 0 001.661-1.952zm-7.207 1.649c-3.312 0-6.006-2.645-6.006-5.897 0-3.251 2.694-5.897 6.006-5.897 3.312 0 6.006 2.646 6.006 5.897 0 3.252-2.694 5.897-6.006 5.897zm8.408-5.897a6.5 6.5 0 01.007-.28 1.15 1.15 0 00.014-.172v-.022c.247-3.03 2.836-5.423 5.985-5.423 3.312 0 6.006 2.646 6.006 5.897 0 3.252-2.694 5.897-6.006 5.897-3.312 0-6.006-2.645-6.006-5.897zM2.426 5.806A4.967 4.967 0 004.9 6.46h5.992a8.43 8.43 0 015.95 2.423 8.137 8.137 0 012.38 4.7 8.452 8.452 0 00-5.175-2.372 1.222 1.222 0 00-.28-.033H8.503a6.21 6.21 0 01-3.525-1.087 1.187 1.187 0 00-.396-.296c-1.202-.976-2.01-2.393-2.156-3.99zm36.172 13.628c0 8.454-8.119 15.331-18.098 15.331-9.98 0-18.098-6.877-18.098-15.33 0-2.36.694-4.732 2.015-6.921a8.568 8.568 0 003.06.963c-1.596 1.504-2.592 3.618-2.592 5.957 0 4.552 3.772 8.255 8.408 8.255a8.49 8.49 0 003.526-.761l2.62 4.852c.208.386.616.627 1.061.627.445 0 .853-.241 1.061-.627l2.62-4.852a8.49 8.49 0 003.526.761c4.636 0 8.408-3.703 8.408-8.255 0-2.338-.995-4.452-2.591-5.956a8.593 8.593 0 003.064-.957c1.318 2.188 2.01 4.556 2.01 6.913zm-2.2-9.619a1.196 1.196 0 00-.357.266 6.184 6.184 0 01-3.53 1.098h-5.263c-.093 0-.184.011-.272.031a8.452 8.452 0 00-5.18 2.358 8.138 8.138 0 012.378-4.684 8.431 8.431 0 015.95-2.423h5.991c.873 0 1.716-.226 2.458-.649-.148 1.606-.963 3.027-2.174 4.003z" fill="#7653FC"/><path d="M13.5 16.683l1.01 2.591h3.27l-2.645 1.602 1.01 2.59-2.645-1.6-2.645 1.6 1.01-2.59-2.645-1.602h3.27l1.01-2.59zm14 0l1.01 2.591h3.27l-2.645 1.602 1.01 2.59-2.645-1.6-2.645 1.6 1.01-2.59-2.645-1.602h3.27l1.01-2.59z" fill="#7653FC"/></svg>
